X: 17403
T: High Winds, The
R: jig
M: 6/8
K: Dmajor
d2F AFE|DB,A, DFA|B3 AFD|EFE EFA|
dAF AFE|DB,A, DFA|B3 AFD|1 EDB, Dgf:|2 EDB, DFA||
def g2e|fdB AFA|BdB AFD|EFE EFA|
def g2a|fdB AFA|B3 AFD|EDC D3:|

